X: 1612
T: Anna's
R: reel
M: 4/4
K: Fmajor
|G2AB dBAG|FGc2c2FG|c2cB AGFD|CDFG cBAG|
G2AB dBAG|FGc2c2FG|c2cf ecz f|ecde fe g2|
G2AB dBAG|FGc2c2FG|c2cB AGFD|CDFG cBAG|
GABd fgfd|cdcA GFC2|CD_EF GFEC|D^FGA AFD2||
|:G2=BA BcBG|FAEA DCD2|G2=BA BcBG|zgfd c=Bd2|
G2=BA BcBG|FAEA DCD2|_B,CDF GcBG|CD^FG dc_BG:|

